src/assets/images/sidebar/icon-delete.svg

<svg width="24" height="24" viewBox="0 0 24 24" fill="none" xmlns="http://www.w3.org/2000/svg">
<g clip-path="url(#clip0_1_8793)">
<path d="M6 18.1176C6 19.1529 6.9 20 8 20H16C17.1 20 18 19.1529 18 18.1176V9.64706C18 8.61176 17.1 7.76471 16 7.76471H8C6.9 7.76471 6 8.61176 6 9.64706V18.1176ZM18 4.94118H15.5L14.79 4.27294C14.61 4.10353 14.35 4 14.09 4H9.91C9.65 4 9.39 4.10353 9.21 4.27294L8.5 4.94118H6C5.45 4.94118 5 5.36471 5 5.88235C5 6.4 5.45 6.82353 6 6.82353H18C18.55 6.82353 19 6.4 19 5.88235C19 5.36471 18.55 4.94118 18 4.94118Z" fill="#2D3149"/>
</g>
<defs>
<clipPath id="clip0_1_8793">
<rect width="24" height="24" fill="white"/>
</clipPath>
</defs>
</svg>

<svg xmlns="http://www.w3.org/2000/svg" width="24" height="24" fill="none" viewBox="0 0 24 24"><g clip-path="url(#a)"><path fill="#2d3149" d="M6 18.118C6 19.153 6.9 20 8 20h8c1.1 0 2-.847 2-1.882v-8.47c0-1.036-.9-1.883-2-1.883H8c-1.1 0-2 .847-2 1.882zM18 4.94h-2.5l-.71-.668c-.18-.17-.44-.273-.7-.273H9.91c-.26 0-.52.104-.7.273l-.71.668H6c-.55 0-1 .424-1 .941 0 .518.45.942 1 .942h12c.55 0 1-.424 1-.942 0-.517-.45-.94-1-.94"/></g><defs><clipPath id="a"><path fill="#fff" d="M0 0h24v24H0z"/></clipPath></defs></svg>
